public/icon.svg

<?xml version="1.0" encoding="UTF-8"?>
<svg id="Ebene_1" data-name="Ebene 1" xmlns="http://www.w3.org/2000/svg" viewBox="0 0 32.19 31.13">
  <defs>
    <style>
      .cls-1 {
        fill: #d6fe51;
      }
    </style>
  </defs>
  <path class="cls-1" d="M7.64.05h16.79c5.42-.41,7.51,1.69,7.11,7.11,0,0,0,16.79,0,16.79.04,3.59-.02,5.43-2.94,6.76-2.24.85-18.17.11-20.96.35-3.59.04-5.43-.02-6.76-2.94C.03,25.88.77,9.94.53,7.16.12,1.73,2.21-.36,7.64.05Z"/>
  <g>
    <path d="M4.86,19.7H0c.09,9.95,20.75,8.21,16.72-2.1-2.07-4.3-9.47-1.82-11.18-5.81.41-2.84,6.45-2.21,6.33.79h4.86C16.38,3.43-2.95,5.06.94,14.68c2.08,4.02,9.85,1.91,11.19,5.77-.35,3.68-7.48,2.94-7.27-.75Z"/>
    <path d="M20.21,7.15v18.59h5.11c.15-5.06-1.81-16.4,6.87-14.17v-4.75c-2.86-.76-5.95,1.13-7.05,3.78h-.07v-3.45h-4.86Z"/>
  </g>
</svg>

<?xml version="1.0" encoding="UTF-8" standalone="no"?>
<!DOCTYPE svg PUBLIC "-//W3C//DTD SVG 1.1//EN" "http://www.w3.org/Graphics/SVG/1.1/DTD/svg11.dtd">
<svg width="100%" height="100%" viewBox="0 0 32 32" version="1.1" xmlns="http://www.w3.org/2000/svg" xmlns:xlink="http://www.w3.org/1999/xlink" xml:space="preserve" xmlns:serif="http://www.serif.com/" style="fill-rule:evenodd;clip-rule:evenodd;stroke-linejoin:round;stroke-miterlimit:2;">
    <g transform="matrix(1.16907,0,0,1.10367,-3.51623,-1.19922)">
        <path d="M7.64,0.05L24.43,0.05C29.85,-0.36 31.94,1.74 31.54,7.16L31.54,23.95C31.58,27.54 31.52,29.38 28.6,30.71C26.36,31.56 10.43,30.82 7.64,31.06C4.05,31.1 2.21,31.04 0.88,28.12C0.03,25.88 0.77,9.94 0.53,7.16C0.12,1.73 2.21,-0.36 7.64,0.05Z" style="fill:rgb(214,254,81);fill-rule:nonzero;"/>
    </g>
    <g transform="matrix(1.01489,0,0,1.01141,-0.574186,0.134782)">
        <g>
            <g>
                <path d="M4.86,19.7L0,19.7C0.09,29.65 20.75,27.91 16.72,17.6C14.65,13.3 7.25,15.78 5.54,11.79C5.95,8.95 11.99,9.58 11.87,12.58L16.73,12.58C16.38,3.43 -2.95,5.06 0.94,14.68C3.02,18.7 10.79,16.59 12.13,20.45C11.78,24.13 4.65,23.39 4.86,19.7Z" style="fill-rule:nonzero;"/>
                <path d="M20.21,7.15L20.21,25.74L25.32,25.74C25.47,20.68 23.51,9.34 32.19,11.57L32.19,6.82C29.33,6.06 26.24,7.95 25.14,10.6L25.07,10.6L25.07,7.15L20.21,7.15Z" style="fill-rule:nonzero;"/>
            </g>
        </g>
    </g>
</svg>
